static/assets/images/icons/bank.svg

<svg width="256" height="256" viewBox="0 0 256 256" fill="none" xmlns="http://www.w3.org/2000/svg">
<path fill-rule="evenodd" clip-rule="evenodd" d="M16.0006 102.896C16.0006 99.0904 18.1257 95.6011 21.5124 93.8463L119.069 43.2975C124.981 40.2342 132.019 40.2342 137.931 43.2975L235.488 93.8463C238.875 95.6011 241 99.0904 241 102.896V121.294C241 126.927 236.421 131.493 230.773 131.493H224.636V193.854H226.387C234.457 193.854 241 200.379 241 208.427C241 216.476 234.457 223 226.387 223H30.6134C22.543 223 16.0005 216.476 16 208.428C15.9995 200.379 22.5423 193.854 30.6134 193.854H32.3642V131.493H26.2279C20.5795 131.493 16.0006 126.927 16.0006 121.294V102.896ZM61.0005 131.493V193.854H85.5459V131.493H61.0005ZM114.182 131.493V193.854H143.841V131.493H114.182ZM171.455 193.854H196V131.493H171.455V193.854ZM128.5 105.723C137.538 105.723 144.864 98.4173 144.864 89.4051C144.864 80.3928 137.538 73.0869 128.5 73.0869C119.463 73.0869 112.137 80.3928 112.137 89.4051C112.137 98.4173 119.463 105.723 128.5 105.723Z" fill="black"/>
</svg>

<svg xmlns="http://www.w3.org/2000/svg" fill="none" viewBox="0 0 256 256"><path fill="#000" fill-rule="evenodd" d="M16 102.896c0-3.806 2.126-7.295 5.512-9.05l97.557-50.549a20.5 20.5 0 0 1 18.862 0l97.557 50.55a10.2 10.2 0 0 1 5.512 9.049v18.398c0 5.633-4.579 10.199-10.227 10.199h-6.137v62.361h1.751c8.07 0 14.613 6.525 14.613 14.573S234.457 223 226.387 223H30.613c-8.07 0-14.612-6.524-14.613-14.572 0-8.049 6.542-14.574 14.613-14.574h1.751v-62.361h-6.136c-5.649 0-10.227-4.566-10.227-10.199zm45 28.597v62.361h24.546v-62.361zm53.182 0v62.361h29.659v-62.361zm57.273 62.361H196v-62.361h-24.545zM128.5 105.723c9.038 0 16.364-7.306 16.364-16.318s-7.326-16.318-16.364-16.318-16.363 7.306-16.363 16.318 7.326 16.318 16.363 16.318" clip-rule="evenodd"/></svg>
